!!!COM: Palestrina, Giovanni Perluigi da
!!!OPR: Missa Gia fu chi m'ebbe cara
!!!OMD: Benedictus
!!!OTL: First Section
**kern	**kern	**kern
*Ibass	*Itenor	*Icalto
!Bassus	!Tenor	!Altus
*clefF4	*clefGv2	*clefG2
*k[]	*k[]	*k[]
*D:dor	*D:dor	*D:dor
*M4/2	*M4/2	*M4/2
=1	=1	=1
0r	1e	0r
.	1c	.
=2	=2	=2
0r	1B	0r
.	2.A	.
.	4B	.
=3	=3	=3
1A	4c	0r
.	4d	.
.	2e	.
1F	2A	.
.	[2a	.
=4	=4	=4
1E	2a]	0r
.	2g#	.
2.D	2.a	.
4E	4g	.
=5	=5	=5
4F	2f	1a
4G	.	.
2A	2e	.
2D	1d	1f
[2d	.	.
=6	=6	=6
2d]	2r	1e
2c#	2e	.
2.d	2.f	2.d
4c	4e	4e
=7	=7	=7
2B-	2d	4f
.	.	4g
2A	2c	2a
1G	1B-	2d
.	.	[2dd
=8	=8	=8
2r	1A	2dd]
2A	.	2cc#
2.B-	[1d	2.dd
4A	.	4cc
=9	=9	=9
2G	1d]	2b-
2F	.	2a
1E	1e	1g
=10	=10	=10
1D	1f#	2r
.	.	2a
[1G	2g	2.b-
.	4G	.
.	4A	4a
=11	=11	=11
1G]	4B-	2g
.	4c	.
.	1d	2f
1A	.	1e
.	2c#	.
=12	=12	=12
1B-	2d	1d
.	2d	.
2c	2e	[1g
4C	2c	.
4D	.	.
=13	=13	=13
4E	1B	1g]
4F	.	.
1G	.	.
.	2A	1a
2F#	2A	.
=14	=14	=14
2G	2G	1b
2G	2B	.
2A	1A	2cc
2F	.	4c
.	.	4d
=15	=15	=15
1E	1G	4e
.	.	4f
.	.	1g
2D	1A	.
2D	.	2f
=16	=16	=16
2C	2r	2g
2E	2e	2g
1D	2f	2a
.	2d	2f
=17	=17	=17
1C	2e	1e
.	1g	.
1D	.	2d
.	2f	2d
=18	=18	=18
2r	1e	2c
2A	.	2e
2B	1r	1d
2G	.	.
=19	=19	=19
2A	1r	1c
1c	.	.
.	2r	1d
2B	2d	.
=20	=20	=20
1A	2e	2r
.	2c	2a
1r	2d	2b
.	4e	2g
.	8d	.
.	8e	.
=21	=21	=21
1r	2.f	2a
.	.	1cc
.	4e	.
2r	2d	.
2G	2d	2b
=22	=22	=22
2A	2c	1a
2F	1f	.
2G	.	1r
4A	2e	.
8G	.	.
8A	.	.
=23	=23	=23
2.B-	2.d	1r
4A	4c	.
2G	2B-	2r
2G	2B-	2g
=24	=24	=24
2F	2A	2a
1B-	4d	2f
.	4c	.
.	4d	2g
.	4e	.
2A	2f	4f
.	.	8g
.	.	8a
=25	=25	=25
2.G	4e	2.b-
.	4d	.
.	1d	.
4F	.	4a
2E	.	2g
2E	2c#	2g
=26	=26	=26
0D	0d	0f#
*-	*-	*-
!!!CDT: 1525/^1526/-1594/2/2
!!!OCY: Italia
!!!AGN: Mass (Parody)
!!!AST: renaissance, vocal
!!!ASW: Madrigal 1555 (Palestrina)
!!!PWK: Masses, Book 10
!!!RNB: Cadence finals: A
!!!YOR: Le Opere Complete, v. 27, p. 30
!!!YOO: Rome, Italy: Fratelli Scalera
!!!END: 1992//
!!!EED: John Miller
!!!YEC: Copyright 2000, John Miller
!!!YEN: United States of America
!!!YEM: Rights to all derivative electronic formats reserved.
!!!YEM: Refer to licensing agreement for further details.
!!!YEM: This file must be accompanied by the licensing agreement.
!!!YEM: A copy of the licensing agreement may be found at http://www.music-cog.ohio-state.edu/HumdrumDatabases/Palestrina/license.txt
!!!EMD: converted to Humdrum by Bret Aarden
